icons/x-micro-o.svg

<svg width="24" height="24" viewBox="0 0 24 24" xmlns="http://www.w3.org/2000/svg">
    <path fill-rule="evenodd"
        d="M12.0632 13.1242L15.9055 16.9665L16.9662 15.9059L13.1238 12.0635L16.9662 8.22118L15.9055 7.16052L12.0632 11.0029L8.22082 7.16052L7.16016 8.22118L11.0025 12.0635L7.16016 15.9059L8.22082 16.9665L12.0632 13.1242Z" />
</svg>

<svg xmlns="http://www.w3.org/2000/svg" width="24" height="24" viewBox="0 0 24 24">
    <path
        d="M12.063 13.124l3.842 3.842 1.061-1.06-3.842-3.843 3.842-3.842-1.06-1.06-3.843 3.842L8.221 7.16 7.16 8.22l3.841 3.842-3.842 3.843 1.06 1.06 3.843-3.842z" />
</svg>
